storage/app/icons/tabler/filled/hanger-2.svg

<!--
unicode: "ff61"
version: "3.10"
-->
<svg
  xmlns="http://www.w3.org/2000/svg"
  width="24"
  height="24"
  viewBox="0 0 24 24"
  fill="currentColor"
>
  <path d="M12 2a3 3 0 0 1 3 3a1 1 0 0 1 -1.993 .117l-.007 -.117a1 1 0 0 0 -2 -.004c.006 1.516 .495 2.579 1.486 3.13l7.97 4.428a3 3 0 0 1 1.544 2.623v.823a3 3 0 0 1 -2.824 2.995l-.176 .005a3 3 0 0 1 -3 3h-8a3 3 0 0 1 -3 -3a3 3 0 0 1 -3 -3v-.823a3 3 0 0 1 1.543 -2.623l6.695 -3.72c-.832 -.976 -1.232 -2.296 -1.238 -3.834a3 3 0 0 1 3 -3m0 8.144l-7.486 4.158a1 1 0 0 0 -.514 .875v.823a1 1 0 0 0 1 1h.17a3 3 0 0 1 2.83 -2h8c1.306 0 2.418 .835 2.83 2h.17a1 1 0 0 0 1 -1v-.823a1 1 0 0 0 -.515 -.875z" />
</svg>

<svg xmlns="http://www.w3.org/2000/svg" width="24" height="24" fill="currentColor" viewBox="0 0 24 24"><path d="M12 2a3 3 0 0 1 3 3 1 1 0 0 1-1.993.117L13 5a1 1 0 0 0-2-.004c.006 1.516.495 2.579 1.486 3.13l7.97 4.428A3 3 0 0 1 22 15.177V16a3 3 0 0 1-2.824 2.995L19 19a3 3 0 0 1-3 3H8a3 3 0 0 1-3-3 3 3 0 0 1-3-3v-.823a3 3 0 0 1 1.543-2.623l6.695-3.72C9.406 7.858 9.006 6.538 9 5a3 3 0 0 1 3-3m0 8.144-7.486 4.158a1 1 0 0 0-.514.875V16a1 1 0 0 0 1 1h.17A3 3 0 0 1 8 15h8c1.306 0 2.418.835 2.83 2H19a1 1 0 0 0 1-1v-.823a1 1 0 0 0-.515-.875z"/></svg>
